X:1
T:Vingt Mélodies
T:La barque des amours
T:3. La barque des amours
T:Vingt mélodies
T:Holmès, Augusta
T:(Unknown)
T:OpenScore (CC0)
T:OpenScore (CC0)
T:OpenScore (CC0)
T:OpenScore (CC0)
T:OpenScore (CC0)
T:OpenScore (CC0)
T:OpenScore (CC0)
T:OpenScore (CC0)
T:OpenScore (CC0)
T:OpenScore (CC0)
C:Holmès, Augusta
Z:Unknown
Z:OpenScore (CC0)
%%score 1 { 2 | ( 3 4 ) }
L:1/8
Q:1/4=116
M:6/8
K:Eb
V:1 treble nm="Chant\nVoice"
V:2 treble nm="Piano"
V:3 bass 
V:4 bass 
V:1
"^Allegretto con moto" z6 | z6 | (G>B) F E F G | (BGE) C E G | B3 B3 | B3- B2 B | c2 A (FE3/2) c/ | %7
w: ||Sur _ la mer é- toi-|lé- * * e, Sur le|flot qui|dort, _ La|nef s'en est _ al-|
 (B2 G) F E3/2 G/ | B,3 B3 | B3- B2 z | (G>B) F E F G | (BGE) C E G | B3 B3 | B3- B2 B | %14
w: lé- * e Vers les|Î- les|d'or! _|Vers _ les ri- ves heu-|\- reu- * * ses, Au pa-|ys des|Dieux, _ Si-|
 c2 A (FE3/2) c/ | (B2 G) F E3/2 G/ | B,3 B3 | E3- E2 z |!f! e2 c B A3/2 c/ | (e2 B) G F3/2 E/ | %20
w: \- rè- nes a- * mou-|reu- * ses, Por- tez-|nous tous|deux. _|A- do- ra- ble Dé-|es- * se, Qui sor-|
 B3 B3 | B3- B z B, |!<(! C2 E D2 F!<)! |!f! (B2 G) F E3/2 G/ | C3 F3 | F3- F2 z | %26
w: \- tis des|flots, _ Pro-|di- gue ta ca-|\- res- * se A tes|ma- te-|lots! _|
!f! e2 c B A3/2 c/ | (e2 B) G F3/2 E/ | B3 B3 | B3- B2!p! B | =B2 ^F (^D^C3/2) =B,/ | %31
w: A- phro- di- te la|blon- * de, Tendre aux|cœurs é-|\- pris, _ Pro-|tè- ge- nous _ sur|
 (_B2 G) F E3/2 G/ | B,3 B3 | E3- E2 z | z6 | z6 | z6 | z6 | z6 | z6 | z6 | z6 | z6 | %43
w: l'on- * de! Con- duis-|nous, Ky-|pris! _||||||||||
 (G>B) F E F G | (BGE) C E G | B3 B3 | B3- B2 B | c2 A (FE3/2) c/ | (B2 G) F E3/2 G/ | B,3 B3 | %50
w: Nous * vo- guons vers les|ter- * * res Où nous|ai- me-|rons, _ Des|ro- ses de _ Ky-|thè- * re Fleu- ris-|sant nos|
 B3- B2 z | (G>B) F E F G | (BGE) C E G | B3 B3 | B3- B2 B | c2 A (FE3/2) c/ | (B2 G) F E3/2 G/ | %57
w: fronts! _|Les * doux chants de la|ly- * * re Ber- ce-|\- ront nos|cœurs _ Qu'em-|bra- se le _ dé-|\- li- * re Des bai-|
 B,3 B3 | E3- E2 z |!f! e2 c B A3/2 c/ | (e2 B) G F3/2 E/ | B3 B3 | B3- B z B, | %63
w: sers vain-|queurs! _|Chère A- na- dy- o-|mè- * ne Aux nei-|geux oi-|\- seaux, _ Ta|
!<(! C2 E D2!<)! F | (B2 G) F E3/2 G/ | C3 F3 | F3- F2 z |!f! e2 c B A3/2 c/ | (e2 B) G F3/2 E/ | %69
w: grâ- ce nous em-|mè- * ne Sur les|cal- mes|eaux! _|A notre âme al- té-|\- ré- * e, A nos|
 B3 B3 | B3- B2!p! B | =B2 ^F (^D^C3/2) =B,/ | (_B2 G) F E3/2 G/ | B,3 B3 | E3- E2 z | z6 | z6 | %77
w: fronts pâ-|lis, _ Ac-|\- corde, ô Ky- * thè-|ré- * e, Les di-|vins ou-|\- blis! _|||
 z6 | z6 | z6 | z6 | z6 | z6 | z6 | (G>B) F E F G | (BGE) C E G | B3 B3 | (B3 B2) B | %88
w: |||||||Vois * gran- dir dans l'au-|ro- * * re, Sous le|ciel si|pur, _ La|
 c2 A (FE3/2) c/ | (B2 G) F E3/2 G/ | B,3 B3 | B3- B2 z | (G>B) F E F G | (BGE) C E G | B3 B3 | %95
w: grè- ve que _ j'a-|\- do- * re, Le pa-|ys d'a-|zur! _|Vois * les tem- ples d'i-|voi- * * re Et les|bois om-|
 (B3 B2) B | c2 A (FE3/2) c/ | (B2 G) F E3/2 G/ | B,3 B3 | E3- E2 z |!f! e2 c B A3/2 c/ | %101
w: \- breux, _ Et|l'onde où vien- * nent|boi- * re Les ra-|\- miers peu-|reux! _|Vier- ge vic- to- ri-|
 (e2 B) G F3/2 E/ | B3 B3 | B3- B z B, | C2 E D2 F | (B2 G) F E3/2 G/ | C3 F3 | F3- F2 z | %108
w: \- eu- * se! Mè- re|des A-|mours! _ Fais|qu'en ton Île heu-|reu- * se, nous ai-|mions tou-|\- jours! _|
!f! e2 c B A3/2 c/ | (e2 B) G F3/2 E/ | B3 B3 | B3- B z!p! B | =B2 ^F (^D^C3/2) =B,/ | %113
w: Par tes ex- qui- ses|flam- * mes, Rei- ne|du plai-|sir, _ At-|ti- se dans * nos|
 (_B2 G) F E3/2 G/ | B,3 B3 | E3- E2 z | z6 | z6 | z6 | z6 | z6 | z6 | z6 | z6 |] %124
w: â- * mes, l'é- ter-|nel dé-|sir! _|||||||||
V:2
!pp!"^Allegretto con moto" (3(b/g/e/(3b/g/e/(3b/g/e/ (3b/g/e/(3b/g/e/(3b/g/e/) | %1
 (3(b/g/e/(3b/g/e/(3b/g/e/ (3b/g/e/(3b/g/e/(3b/g/e/) | %2
 (3(b/g/e/(3b/g/e/(3b/g/e/ (3b/g/e/(3b/g/e/(3b/g/e/) | %3
 (3(b/g/e/(3b/g/e/(3b/g/e/ (3b/g/e/(3b/g/e/(3b/g/e/) | %4
 (3(b/g/e/(3b/g/e/(3b/g/e/ (3b/g/e/(3b/g/e/(3b/g/e/) | %5
 (3(b/g/e/(3b/g/e/(3b/g/e/ (3b/g/e/(3b/g/e/(3b/g/e/) | %6
 (3(c'/!f!a/e/(3c'/a/e/(3c'/a/e/ (3c'/a/e/(3c'/a/e/(3c'/a/e/) | %7
 (3(b/g/e/(3b/g/e/(3b/g/e/ (3b/g/e/(3b/g/e/(3b/g/e/) | %8
 (3(b/a/d/(3b/a/d/(3b/a/d/ (3b/a/d/(3b/a/d/(3b/a/d/) | %9
 (3(b/g/e/(3b/g/e/(3b/g/e/ (3b/g/e/(3b/g/e/(3b/g/e/) | %10
 (3(b/g/e/(3b/g/e/(3b/g/e/ (3b/g/e/(3b/g/e/(3b/g/e/) | %11
 (3(b/g/e/(3b/g/e/(3b/g/e/ (3b/g/e/(3b/g/e/(3b/g/e/) | %12
 (3(b/_g/_d/(3b/g/d/(3b/g/d/ (3b/a/=d/(3b/a/d/(3b/a/d/) | %13
 (3(b/g/e/(3b/g/e/(3b/g/e/ (3b/g/e/(3b/g/e/(3b/g/e/) | %14
 (3(c'/a/e/(3c'/a/e/(3c'/a/e/ (3c'/a/e/(3c'/a/e/(3c'/a/e/) | %15
 (3(b/g/e/(3b/g/e/(3b/g/e/ (3b/g/e/(3b/g/e/(3b/g/e/) | %16
 (3(b/a/d/(3b/a/d/(3b/a/d/ (3b/a/d/(3b/a/d/(3b/a/d/) | %17
 (3(b/g/e/(3b/g/e/(3b/g/e/ (3b/g/e/(3b/g/e/(3b/g/e/) | %18
 (3(c'/!f!a/e/(3c'/a/e/(3c'/a/e/ (3c'/a/e/(3c'/a/e/(3c'/a/e/) | %19
 (3(b/g/e/(3b/g/e/(3b/g/e/ (3b/g/e/(3b/g/e/(3b/g/e/) | %20
 (3(b/a/c/(3b/a/c/(3b/a/c/ (3b/a/d/(3b/a/d/(3b/a/d/) | %21
 (3(b/g/e/(3b/g/e/(3b/g/e/ (3b/g/e/(3b/g/e/(3b/g/e/) | %22
 (3(a/e/c/(3a/e/c/(3a/e/c/ (3a/f/B/(3a/f/B/(3a/d/B/) | %23
 (3(g/e/B/(3g/e/B/(3g/e/B/ (3b/g/e/(3b/g/e/(3b/g/e/) | %24
 (3(=a/f/e/(3a/f/e/(3a/f/e/ (3a/f/e/(3a/f/e/(3a/f/e/) | %25
 (3(_a/f/d/(3a/f/d/(3a/f/d/ (3b/f/!<(!d/(3b/f/d/(3b/f/d/)!<)! | %26
!f! (3(c'/a/e/(3c'/a/e/(3c'/a/e/ (3c'/a/e/(3c'/a/e/(3c'/a/e/) | %27
 (3(b/g/e/(3b/g/e/(3b/g/e/ (3b/g/e/(3b/g/e/(3b/g/e/) | %28
 (3(b/a/c/(3b/a/c/(3b/a/c/ (3b/a/d/(3b/a/d/(3b/a/d/) | %29
 (3(b/g/e/(3b/g/e/(3b/g/e/ (3b/g/e/(3b/g/e/(3b/g/e/) | %30
!pp! (3(=a/^f/^d/(3a/f/d/(3a/f/d/ (3a/f/d/(3a/f/d/(3a/f/d/) | %31
 (3(_b/g/e/(3b/g/e/(3b/g/e/ (3b/g/e/(3b/g/e/(3b/g/e/) | %32
 (3(b/a/d/(3b/a/d/(3b/a/d/ (3b/a/d/(3b/a/d/(3b/a/d/) | %33
 (3(b/g/e/(3b/g/e/(3b/g/e/ (3b/g/e/"_cantando"(3b/g/e/(3b/g/e/) | %34
 (3(a/e/"_cresc."c/(3a/e/c/(3a/e/c/ (3a/f/B/(3a/f/B/(3a/d/B/) | %35
!f! (3(g/e/B/(3g/e/B/(3g/e/B/ (3b/g/e/(3b/g/e/(3b/g/e/) | %36
 (3(b/g/e/(3b/g/e/(3b/g/e/ (3b/a/d/(3b/a/d/(3b/a/d/) | %37
!<(! (3(b/g/e/(3b/g/e/(3b/g/e/ (3b/!<)!g/e/(3b/g/e/!p!(3b/g/e/) | %38
!<(! (3(a/e/c/(3a/e/c/(3a/e/c/ (3a/f/B/(3a/f/B/(3a/d/B/)!<)! | %39
 (3(g/e/!>(!B/(3g/e/B/(3g/e/B/ (3g/e/B/(3g/e/B/(3g/e/B/)!>)! | %40
!p! (3(b/g/e/"_dim."(3b/g/e/(3b/g/e/ (3b/a/d/(3b/a/d/(3b/a/d/) | %41
 (3(b/g/e/(3b/g/e/(3b/g/e/ (3b/g/e/(3b/g/e/(3b/g/e/) | %42
 (3(b/g/e/(3b/g/e/(3b/g/e/ (3b/g/e/(3b/g/e/(3b/g/e/) | %43
 (3(b/g/e/(3b/g/e/(3b/g/e/ (3b/g/e/(3b/g/e/(3b/g/e/) | %44
 (3(b/g/e/(3b/g/e/(3b/g/e/ (3b/g/e/(3b/g/e/(3b/g/e/) | %45
 (3(b/g/e/(3b/g/e/(3b/g/e/ (3b/g/e/(3b/g/e/(3b/g/e/) | %46
 (3(b/g/e/(3b/g/e/(3b/g/e/ (3b/g/e/(3b/g/e/(3b/g/e/) | %47
!f! (3(c'/a/e/(3c'/a/e/(3c'/a/e/ (3c'/a/e/(3c'/a/e/(3c'/a/e/) | %48
 (3(b/g/e/(3b/g/e/(3b/g/e/ (3b/g/e/(3b/g/e/(3b/g/e/) | %49
 (3(b/a/d/(3b/a/d/(3b/a/d/ (3b/a/d/(3b/a/d/(3b/a/d/) | %50
 (3(b/g/e/(3b/g/e/(3b/g/e/ (3b/g/e/(3b/g/e/(3b/g/e/) | %51
 (3(b/g/e/(3b/g/e/(3b/g/e/ (3b/g/e/(3b/g/e/(3b/g/e/) | %52
 (3(b/g/e/(3b/g/e/(3b/g/e/ (3b/g/e/(3b/g/e/(3b/g/e/) | %53
 (3(b/_g/_d/(3b/g/d/(3b/g/d/ (3b/a/=d/(3b/a/d/(3b/a/d/) | %54
 (3(b/g/e/(3b/g/e/(3b/g/e/ (3b/g/e/(3b/g/e/(3b/g/e/) | %55
 (3(c'/a/e/(3c'/a/e/(3c'/a/e/ (3c'/a/e/(3c'/a/e/(3c'/a/e/) | %56
 (3(b/g/e/(3b/g/e/(3b/g/e/ (3b/g/e/(3b/g/e/(3b/g/e/) | %57
 (3(b/a/d/(3b/a/d/(3b/a/d/ (3b/a/d/(3b/a/d/(3b/a/d/) | %58
 (3(b/g/e/(3b/g/e/(3b/g/e/ (3b/g/e/(3b/g/e/(3b/g/e/) | %59
!f! (3(c'/a/e/(3c'/a/e/(3c'/a/e/ (3c'/a/e/(3c'/a/e/(3c'/a/e/) | %60
 (3(b/g/e/(3b/g/e/(3b/g/e/ (3b/g/e/(3b/g/e/(3b/g/e/) | %61
 (3(b/a/c/(3b/a/c/(3b/a/c/ (3b/a/d/(3b/a/d/(3b/a/d/) | %62
 (3(b/g/e/(3b/g/e/(3b/g/e/ (3b/g/e/(3b/g/e/(3b/g/e/) | %63
 (3(a/e/c/(3a/e/c/(3a/e/c/ (3a/f/B/(3a/f/B/(3a/d/B/) | %64
 (3(g/e/B/(3g/e/B/(3g/e/B/ (3b/g/e/(3b/g/e/(3b/g/e/) | %65
 (3(=a/f/e/(3a/f/e/(3a/f/e/ (3a/f/e/(3a/f/e/(3a/f/e/) | %66
 (3(_a/f/d/(3a/f/d/(3a/f/d/ (3b/f/!<(!d/(3b/f/d/(3b/f/d/)!<)! | %67
!f! (3(c'/a/e/(3c'/a/e/(3c'/a/e/ (3c'/a/e/(3c'/a/e/(3c'/a/e/) | %68
 (3(b/g/e/(3b/g/e/(3b/g/e/ (3b/g/e/(3b/g/e/(3b/g/e/) | %69
 (3(b/a/c/(3b/a/c/(3b/a/c/ (3b/a/d/(3b/a/d/(3b/a/d/) | %70
 (3(b/g/e/(3b/g/e/(3b/g/e/ (3b/g/e/(3b/g/e/(3b/g/e/) | %71
!pp! (3(=a/^f/^d/(3a/f/d/(3a/f/d/ (3a/f/d/(3a/f/d/(3a/f/d/) | %72
 (3(_b/g/e/(3b/g/e/(3b/g/e/ (3b/g/e/(3b/g/e/(3b/g/e/) | %73
 (3(b/a/d/(3b/a/d/(3b/a/d/ (3b/a/d/(3b/a/d/(3b/a/d/) | %74
 (3(b/g/e/(3b/g/e/(3b/g/e/ (3b/g/e/"_cantando"(3b/g/e/(3b/g/e/) | %75
 (3(a/e/"_cresc."c/(3a/e/c/(3a/e/c/ (3a/f/B/(3a/f/B/(3a/d/B/) | %76
 (3(g/e/B/!f!(3g/e/B/(3g/e/B/ (3b/g/e/(3b/g/e/(3b/g/e/) | %77
 (3(b/g/e/(3b/g/e/(3b/g/e/ (3b/a/d/(3b/a/d/(3b/a/d/) | %78
!<(! (3(b/g/e/(3b/g/e/(3b/g/e/!<)! (3b/g/e/(3b/g/e/!p!(3b/g/e/) | %79
!<(! (3(a/e/c/(3a/e/c/(3a/e/c/ (3a/f/B/(3a/f/B/(3a/d/B/)!<)! | %80
!mf! (3(g/e/B/(3g/!>(!e/B/(3g/e/B/ (3g/e/B/(3g/e/B/(3g/e/B/)!>)! | %81
!p! (3(b/g/e/"_dim."(3b/g/e/(3b/g/e/ (3b/a/d/(3b/a/d/(3b/a/d/) | %82
 (3(b/g/e/(3b/g/e/(3b/g/e/ (3b/g/e/(3b/g/e/(3b/g/e/) | %83
 (3(b/g/e/(3b/g/e/(3b/g/e/ (3b/g/e/(3b/g/e/(3b/g/e/) | %84
 (3(b/g/e/(3b/g/e/(3b/g/e/ (3b/g/e/(3b/g/e/(3b/g/e/) | %85
 (3(b/g/e/(3b/g/e/(3b/g/e/ (3b/g/e/(3b/g/e/(3b/g/e/) | %86
 (3(b/g/e/(3b/g/e/(3b/g/e/ (3b/g/e/(3b/g/e/(3b/g/e/) | %87
 (3(b/g/e/(3b/g/e/(3b/g/e/ (3b/g/e/(3b/g/e/(3b/g/e/) | %88
 (3(c'/a/e/(3c'/a/e/(3c'/a/e/ (3c'/a/e/(3c'/a/e/(3c'/a/e/) | %89
 (3(b/g/e/(3b/g/e/(3b/g/e/ (3b/g/e/(3b/g/e/(3b/g/e/) | %90
 (3(b/a/d/(3b/a/d/(3b/a/d/ (3b/a/d/(3b/a/d/(3b/a/d/) | %91
 (3(b/g/e/(3b/g/e/(3b/g/e/ (3b/g/e/(3b/g/e/(3b/g/e/) | %92
 (3(b/g/e/(3b/g/e/(3b/g/e/ (3b/g/e/(3b/g/e/(3b/g/e/) | %93
 (3(b/g/e/(3b/g/e/(3b/g/e/ (3b/g/e/(3b/g/e/(3b/g/e/) | %94
 (3(b/_g/_d/(3b/g/d/(3b/g/d/ (3b/a/=d/(3b/a/d/(3b/a/d/) | %95
 (3(b/g/e/(3b/g/e/(3b/g/e/ (3b/g/e/(3b/g/e/(3b/g/e/) | %96
 (3(c'/a/e/(3c'/a/e/(3c'/a/e/ (3c'/a/e/(3c'/a/e/(3c'/a/e/) | %97
 (3(b/g/e/(3b/g/e/(3b/g/e/ (3b/g/e/(3b/g/e/(3b/g/e/) | %98
 (3(b/a/d/(3b/a/d/(3b/a/d/ (3b/a/d/(3b/a/d/(3b/a/d/) | %99
 (3(b/g/e/(3b/g/e/(3b/g/e/ (3b/g/e/(3b/g/e/(3b/g/e/) | %100
!f! (3(c'/a/e/(3c'/a/e/(3c'/a/e/ (3c'/a/e/(3c'/a/e/(3c'/a/e/) | %101
 (3(b/g/e/(3b/g/e/(3b/g/e/ (3b/g/e/(3b/g/e/(3b/g/e/) | %102
 (3(b/a/c/(3b/a/c/(3b/a/c/ (3b/a/d/(3b/a/d/(3b/a/d/) | %103
 (3(b/g/e/(3b/g/e/(3b/g/e/ (3b/g/e/(3b/g/e/(3b/g/e/) | %104
 (3(a/e/c/(3a/e/c/(3a/e/c/ (3a/f/B/(3a/f/B/(3a/d/B/) | %105
 (3(g/e/B/(3g/e/B/(3g/e/B/ (3b/g/e/(3b/g/e/(3b/g/e/) | %106
 (3(=a/f/e/(3a/f/e/(3a/f/e/ (3a/f/e/(3a/f/e/(3a/f/e/) | %107
 (3(_a/f/d/(3a/f/d/(3a/f/d/ (3b/f/!<(!d/(3b/f/d/(3b/f/d/)!<)! | %108
!f! (3(c'/a/e/(3c'/a/e/(3c'/a/e/ (3c'/a/e/(3c'/a/e/(3c'/a/e/) | %109
 (3(b/g/e/(3b/g/e/(3b/g/e/ (3b/g/e/(3b/g/e/(3b/g/e/) | %110
 (3(b/a/c/(3b/a/c/(3b/a/c/ (3b/a/d/(3b/a/d/(3b/a/d/) | %111
 (3(b/g/e/(3b/g/e/(3b/g/e/ (3b/g/e/(3b/g/e/(3b/g/e/) | %112
!pp! (3(=a/^f/^d/(3a/f/d/(3a/f/d/ (3a/f/d/(3a/f/d/(3a/f/d/) | %113
 (3(_b/g/e/(3b/g/e/(3b/g/e/ (3b/g/e/(3b/g/e/(3b/g/e/) | %114
 (3(b/a/d/(3b/a/d/(3b/a/d/ (3b/a/d/(3b/a/d/(3b/a/d/) | %115
 (3(b/g/e/(3b/g/e/(3b/g/e/ (3b/g/e/"_cantando"(3b/g/e/(3b/g/e/) | %116
 (3(a/e/"_cresc."c/(3a/e/c/(3a/e/c/ (3a/f/B/(3a/f/B/(3a/d/B/) | %117
 (3(g/e/B/!f!(3g/e/B/(3g/e/B/ (3b/g/e/(3b/g/e/(3b/g/e/) | %118
 (3(b/g/e/(3b/g/e/(3b/g/e/ (3b/a/d/(3b/a/d/(3b/a/d/) | %119
!<(! (3(b/g/e/(3b/g/e/(3b/g/e/!<)! (3b/g/e/(3b/g/e/!p!(3b/g/e/) | %120
 (3(a/"_dim."e/c/(3a/e/c/(3a/e/c/ (3a/f/B/(3a/f/B/(3a/d/B/) | %121
 (3(g/e/B/(3g/e/B/(3g/e/B/ (3g/e/B/(3g/e/B/(3g/e/B/) | %122
 (3(b/g/e/(3b/g/e/(3b/g/e/ (3b/g/e/(3b/g/e/(3b/g/e/) | !arpeggio![ege']3- [ege']2 !fermata!z |] %124
V:3
!ped! z2 z({EG)} ([EGB] B,2)!ped-up! |!ped! z2 z({EG)} ([EGB] B,2)!ped-up! | %2
!ped! z2 z({EG)} ([EGB] B,2)!ped-up! |!ped! z2 z({EG)} ([EGB] B,2)!ped-up! | %4
!ped! z2 z({EG)} ([EGB] B,2)!ped-up! |!ped! z2 z({EG)} ([EGB] B,2)!ped-up! | %6
!ped! z2 z[K:treble]({EA)} ([EAc] E2)!ped-up! |[K:bass]!ped! z2 z({EG)} ([EGB] B,2)!ped-up! | %8
!ped! z2 z({FA)} ([FAB] B,2)!ped-up! |!ped! z2 z({EG)} ([EGB] B,2)!ped-up! | %10
!ped! z2 z({EG)} ([EGB] B,2)!ped-up! |!ped! z2 z({EG)} ([EGB] B,2)!ped-up! | %12
!ped! z2({_D_G)} [DGB]!ped-up!!ped! z2({B,=D)} [B,DF]!ped-up! | %13
!ped! z2 z({EG)} ([EGB] B,2)!ped-up! |!ped! z2 z[K:treble]({EA)} ([EAc] E2)!ped-up! | %15
[K:bass]!ped! z2 z({EG)} ([EGB] B,2)!ped-up! |!ped! z2 z({FA)} ([FAB] B,2)!ped-up! | %17
!ped! z2 z({EG)} ([EGB] B,2)!ped-up! |!ped! z2 z[K:treble]({EA)} ([EAc] E2)!ped-up! | %19
[K:bass]!ped! z2 z({EG)} ([EGB] B,2)!ped-up! |!ped! z2 z({FA)} ([FAB] B,2)!ped-up! | %21
!ped! z2 z({EG)} ([EGB] B,2)!ped-up! |!ped! z2({CE)} [CEA]!ped-up!!ped! z2({B,D)} [B,DF]!ped-up! | %23
!ped! z2 z({B,E)} ([B,EG] B,2)!ped-up! |!ped! z2 z({EF)} ([EF=A] C2)!ped-up! | %25
!ped! z2 z({DF)} ([DF_A] B,2)!ped-up! |!ped! z2 z[K:treble]({EA)} ([EAc] E2)!ped-up! | %27
[K:bass]!ped! z2 z({EG)} ([EGB] B,2)!ped-up! |!ped! z2 z({FA)} ([FAB] B,2)!ped-up! | %29
!ped! z2 z({EG)} ([EGB] B,2)!ped-up! |!ped! z2 z({^D^F)} ([DF=B] =B,2)!ped-up! | %31
!ped! z2 z({_EG)} ([EG_B] _B,2)!ped-up! |!ped! z2 z({FA)} ([FAB] B,2)!ped-up! | %33
!ped! z2 z({EG)} [EGB] z!mf! B,!ped-up! | %34
!ped!({A,,E,)} !^!C2 E!ped-up!!ped!({B,,F,)} !^!D2 F!ped-up! |!ped!({E,B,)} B2 G FE>G!ped-up! | %36
 B,3[K:bass]!ped!({B,,B,)} !^!F3!ped-up! | %37
!ped!({E,,E,)} (G3[K:treble] !arpeggio!.[B,EGB]) z!ped-up![K:bass] B, | %38
!ped!({A,,E,)} !^!C2 E!ped-up!!ped!({B,,F,)} !^!D2 F!ped-up! | %39
[K:treble]!ped!({E,B,)} B2 G FE>G!ped-up! | x4[K:bass]!ped![K:bass] x2!ped-up! | %41
[K:treble]!pp!!ped!({E,,E,)} E3({EG)} ([EGB] B,2)!ped-up! |!ped! z2 z({EG)} ([EGB] B,2)!ped-up! | %43
!ped! z2 z({EG)} ([EGB] B,2)!ped-up! |!ped! z2 z({EG)} ([EGB] B,2)!ped-up! | %45
!ped! z2 z({EG)} ([EGB] B,2)!ped-up! |!ped! z2 z({EG)} ([EGB] B,2)!ped-up! | %47
!ped! z2 z[K:treble]({EA)} ([EAc] E2)!ped-up! |[K:bass]!ped! z2 z({EG)} ([EGB] B,2)!ped-up! | %49
!ped! z2 z({FA)} ([FAB] B,2)!ped-up! |!ped! z2 z({EG)} ([EGB] B,2)!ped-up! | %51
!ped! z2 z({EG)} ([EGB] B,2)!ped-up! |!ped! z2 z({EG)} ([EGB] B,2)!ped-up! | %53
!ped! z2({_D_G)} [DGB]!ped-up! z2({B,=D)} [B,DF] |!ped! z2 z({EG)} ([EGB] B,2)!ped-up! | %55
 z2 z[K:treble]({EA)} ([EAc] E2) |[K:bass]!ped! z2 z({EG)} ([EGB] B,2)!ped-up! | %57
!ped! z2 z({FA)} ([FAB] B,2)!ped-up! |!ped! z2 z({EG)} ([EGB] B,2)!ped-up! | %59
 z2 z[K:treble]({EA)} ([EAc] E2) |[K:bass]!ped! z2 z({EG)} ([EGB] B,2)!ped-up! | %61
!ped! z2 z({FA)} ([FAB] B,2)!ped-up! |!ped! z2 z({EG)} ([EGB] B,2)!ped-up! | %63
!ped! z2({CE)} [CEA]!ped-up!!ped! z2({B,D)} [B,DF]!ped-up! | %64
!ped! z2 z({B,E)} ([B,EG] B,2)!ped-up! |!ped! z2 z({EF)} ([EF=A] C2)!ped-up! | %66
!ped! z2 z({DF)} ([DF_A] B,2)!ped-up! | z2 z[K:treble]({EA)} ([EAc] E2) | %68
[K:bass]!ped! z2 z({EG)} ([EGB] B,2)!ped-up! |!ped! z2 z({FA)} ([FAB] B,2)!ped-up! | %70
!ped! z2 z({EG)} ([EGB] B,2)!ped-up! |!ped! z2 z({^D^F)} ([DF=B] =B,2)!ped-up! | %72
!ped! z2 z({EG)} ([EG_B] _B,2)!ped-up! |!ped! z2 z({FA)} ([FAB] B,2)!ped-up! | %74
!ped! z2 z({EG)} [EGB] z!mf! B,!ped-up! | %75
!ped!({A,,E,)} !^!C2 E!ped-up!!ped!({B,,F,)} !^!D2 F!ped-up! | %76
[K:treble]!ped!({E,B,)} B2 G FE>G!ped-up! | B,3[K:bass]!ped!({B,,B,)} !^!F3!ped-up! | %78
!ped!({E,,E,)} (G3[K:treble] !arpeggio!.[B,EGB])!ped-up! z[K:bass] B, | %79
!ped!({A,,E,)} !^!C2 E!ped-up!!ped!({B,,F,)} !^!D2 F!ped-up! |!ped!({E,B,)} B2 G FE>G!ped-up! | %81
 B,3[K:bass]!ped!({B,,B,)} B3[K:treble][K:bass]!ped-up! | %82
!pp!!ped!({E,,E,)} E3({EG)} ([EGB] B,2)!ped-up! |!ped! z2 z({EG)} ([EGB] B,2)!ped-up! | %84
!ped! z2 z({EG)} ([EGB] B,2)!ped-up! |!ped! z2 z({EG)} ([EGB] B,2)!ped-up! | %86
!ped! z2 z({EG)} ([EGB] B,2)!ped-up! |!ped! z2 z({EG)} ([EGB] B,2)!ped-up! | %88
!ped! z2 z[K:treble]({EA)} ([EAc] E2)!ped-up! |[K:bass]!ped! z2 z({EG)} ([EGB] B,2)!ped-up! | %90
!ped! z2 z({FA)} ([FAB] B,2)!ped-up! |!ped! z2 z({EG)} ([EGB] B,2)!ped-up! | %92
!ped! z2 z({EG)} ([EGB] B,2)!ped-up! |!ped! z2 z({EG)} ([EGB] B,2)!ped-up! | %94
 z2({_D_G)} [DGB] z2({B,=D)} [B,DF] |!ped! z2 z({EG)} ([EGB] B,2)!ped-up! | %96
 z2 z[K:treble]({EA)} ([EAc] E2) |[K:bass]!ped! z2 z({EG)} ([EGB] B,2)!ped-up! | %98
!ped! z2 z({FA)} ([FAB] B,2)!ped-up! |!ped! z2 z({EG)} ([EGB] B,2)!ped-up! | %100
 z2 z[K:treble]({EA)} ([EAc] E2) |[K:bass]!ped! z2 z({EG)} ([EGB] B,2)!ped-up! | %102
!ped! z2 z({FA)} ([FAB] B,2)!ped-up! |!ped! z2 z({EG)} ([EGB] B,2)!ped-up! | %104
!ped! z2({EG)} [EGc]!ped-up!!ped! z2({B,D)} [B,DF]!ped-up! | %105
!ped! z2 z({B,E)} ([B,EG] B,2)!ped-up! |!ped! z2 z({EF)} ([EF=A] C2)!ped-up! | %107
!ped! z2 z({DF)} ([DF_A] B,2)!ped-up! | z2 z[K:treble]({EA)} ([EAc] E2) | %109
[K:bass]!ped! z2 z({EG)} ([EGB] B,2)!ped-up! |!ped! z2 z({FA)} ([FAB] B,2)!ped-up! | %111
!ped! z2 z({EG)} ([EGB] B,2)!ped-up! |!ped! z2 z({^D^F)} ([DF=B] =B,2)!ped-up! | %113
!ped! z2 z({_EG)} ([EG_B] _B,2)!ped-up! |!ped! z2 z({FA)} ([FAB] B,2)!ped-up! | %115
!ped! z2 z({EG)} [EGB] z!mf! B,!ped-up! | %116
!ped!({A,,E,)} !^!C2 E!ped-up!!ped!({B,,F,)} !^!D2 F!ped-up! | %117
[K:treble]!ped!({E,B,)} B2 G FE>G!ped-up! | B,3[K:bass]!ped!({B,,B,)} !^!F3!ped-up! | %119
!ped!({E,,E,)} (G3[K:treble] !arpeggio!.[B,EGB])!ped-up!"_una corda" z[K:bass] B, | %120
!ped!({A,,E,)} !^!C2 E!ped-up!!ped!({B,,F,)} !^!D2 F!ped-up! |!ped!({E,B,)} B2 G FE>G!ped-up! | %122
 x4[K:bass]!ped![K:treble] x[K:bass] x!ped-up! |!pp!!ped!({E,,E,)} E3- E2!ped-up! !fermata!z |] %124
V:4
 E,,3- E,,2 z | E,,3- E,,2 z | E,,3- E,,2 z | E,,3- E,,2 z | E,,3- E,,2 z | E,,3- E,,2 z | %6
 A,,3[K:treble] x2 x |[K:bass] E,,3- E,,2 z | B,,,3- B,,,2 z | E,,3- E,,2 z | E,,3- E,,2 z | %11
 E,,3- E,,2 z | _G,,2 z F,,2 z | E,,3- E,,2 z | A,,3[K:treble] x2 x |[K:bass] E,,3- E,,2 z | %16
 B,,,3- B,,,2 z | E,,3- E,,2 z | A,,3[K:treble] x2 x |[K:bass] E,,3- E,,2 z | B,,,3- B,,,2 z | %21
 E,,3- E,,2 z | A,,2 z F,,2 z | E,,3- E,,2 z | F,,3- F,,2 z | B,,,3- B,,,2 z | %26
 A,,3[K:treble] x2 x |[K:bass] E,,3- E,,2 z | B,,,3- B,,,2 z | E,,3- E,,2 z | =B,,,3- B,,,2 z | %31
 _E,,3- E,,2 z | B,,,3- B,,,2 z | E,,3- E,,2 z | x6 | x6 | x3[K:bass] x3 | %37
 x3[K:treble] x2[K:bass] x | x6 |[K:treble] x6 | B,3[K:bass]({B,,B,)} B3[K:bass] |[K:treble] x6 | %42
 E,,3- E,,2 z | E,,3- E,,2 z | E,,3- E,,2 z | E,,3- E,,2 z | E,,3- E,,2 z | A,,3[K:treble] x2 x | %48
[K:bass] E,,3- E,,2 z | B,,,3- B,,,2 z | E,,3- E,,2 z | E,,3- E,,2 z | E,,3- E,,2 z | %53
 _G,,2 z F,,2 z | E,,3- E,,2 z | A,,3[K:treble] x2 x |[K:bass] E,,3- E,,2 z | B,,,3- B,,,2 z | %58
 E,,3- E,,2 z | A,,3[K:treble] x2 x |[K:bass] E,,3- E,,2 z | B,,,3- B,,,2 z | E,,3- E,,2 z | %63
 A,,2 z F,,2 z | E,,3- E,,2 z | F,,3- F,,2 z | B,,,3- B,,,2 z | A,,3[K:treble] x2 x | %68
[K:bass] E,,3- E,,2 z | B,,,3- B,,,2 z | E,,3- E,,2 z | =B,,,3- B,,,2 z | _E,,3- E,,2 z | %73
 B,,,3- B,,,2 z | E,,3- E,,2 z | x6 |[K:treble] x6 | x3[K:bass] x3 | x3[K:treble] x2[K:bass] x | %79
 x6 | x6 | x3[K:bass] x[K:treble] x[K:bass] x | x6 | E,,3- E,,2 z | E,,3- E,,2 z | E,,3- E,,2 z | %86
 E,,3- E,,2 z | E,,3- E,,2 z | A,,3[K:treble] x2 x |[K:bass] E,,3- E,,2 z | B,,,3- B,,,2 z | %91
 E,,3- E,,2 z | E,,3- E,,2 z | E,,3- E,,2 z | _G,,2 z F,,2 z | E,,3- E,,2 z | A,,3[K:treble] x2 x | %97
[K:bass] E,,3- E,,2 z | B,,,3- B,,,2 z | E,,3- E,,2 z | A,,3[K:treble] x2 x | %101
[K:bass] E,,3- E,,2 z | B,,,3- B,,,2 z | E,,3- E,,2 z | A,,2 z F,,2 z | E,,3- E,,2 z | %106
 F,,3- F,,2 z | B,,,3- B,,,2 z | A,,3[K:treble] x2 x |[K:bass] E,,3- E,,2 z | B,,,3- B,,,2 z | %111
 E,,3- E,,2 z | =B,,,3- B,,,2 z | _E,,3- E,,2 z | B,,,3- B,,,2 z | E,,3- E,,2 z | x6 | %117
[K:treble] x6 | x3[K:bass] x3 | x3[K:treble] x2[K:bass] x | x6 | x6 | %122
 B,3[K:bass]({B,,B,)} B3[K:treble][K:bass] | x6 |] %124

